X:2760
T:John Peel
A:North-West
M:C|
O:England
R:Reel
Z:Richard Robinson 
%%TUNEURL: http://www.leeds.ac.uk/music/Info/RRTuneBk/gettune/00000d0d.html
%%ID:00000d0d
K:G
BA |\
G2G2 g3e | dedc B2AG | A2A2 e2AB | cBcA GFED|  \
G2G2 g3e | dedc B2AB | cBAG FGAF | d2G2 G2::
Bc|\
d2dc B2Bc | dedc B2AB | c2cB A2AB | cBcA GFED|\
G2G2 g3e  | dedc B2AB | cBAG FGAF | d2G2 G2:|
